packages/symbols/svgs/outline/text-slash-outline.svg

<svg width="24" height="24" viewBox="0 0 24 24" fill="none" xmlns="http://www.w3.org/2000/svg">
<path d="M5.54324 16.728L6.30494 14.4042L9.55104 14.4042L10.3127 16.728L12.3558 16.728L9.10968 7.6908L6.86019 7.6908L3.59985 16.728L5.54324 16.728ZM7.97782 9.4188L9.16663 13.0734L6.70358 13.0734L7.8924 9.4188L7.97782 9.4188Z" fill="black"/>
<path d="M16.271 9.6108C14.5554 9.6108 13.4307 10.7628 13.4307 12.6894L13.4307 13.7355C13.4307 15.6621 14.5412 16.8141 16.2497 16.8141C17.346 16.8141 18.2287 16.3176 18.4636 15.6025L18.5561 15.6025L18.5561 16.728L20.3999 16.728L20.3999 7.21411L18.5205 7.21411L18.5205 10.7694L18.4351 10.7694C18.1432 10.0544 17.3317 9.6108 16.271 9.6108ZM16.8975 11.0011C17.8371 11.0011 18.5205 11.6632 18.5205 12.7159L18.5205 13.6229C18.5205 14.7683 17.8799 15.4304 16.926 15.4304C15.9578 15.4304 15.3527 14.7551 15.3527 13.5501L15.3527 12.8682C15.3527 11.6698 15.9507 11.0011 16.8975 11.0011Z" fill="black"/>
<path fill-rule="evenodd" clip-rule="evenodd" d="M22.5303 2.53033C22.8232 2.23744 22.8232 1.76256 22.5303 1.46967C22.2374 1.17678 21.7626 1.17678 21.4697 1.46967L19.4967 3.44266H2.4C1.07452 3.44266 0 4.51717 0 5.84266L0 18.0141C0 19.3396 1.07452 20.4141 2.4 20.4141H2.52527L1.46967 21.4697C1.17678 21.7626 1.17678 22.2374 1.46967 22.5303C1.76256 22.8232 2.23744 22.8232 2.53033 22.5303L22.5303 2.53033ZM4.02527 18.9141L17.9967 4.94266H2.4C1.90294 4.94266 1.5 5.3456 1.5 5.84266V18.0141C1.5 18.5111 1.90294 18.9141 2.4 18.9141H4.02527ZM7.94465 18.9141H21.6C22.0971 18.9141 22.5 18.5111 22.5 18.0141V5.84266C22.5 5.43107 22.2237 5.08401 21.8465 4.97683L22.9574 3.86311C23.5871 4.29571 24 5.02096 24 5.84266V18.0141C24 19.3396 22.9255 20.4141 21.6 20.4141H6.44846L7.94465 18.9141Z" fill="black"/>
</svg>

<svg width="24" height="24" viewBox="0 0 24 24" xmlns="http://www.w3.org/2000/svg"><path d="m5.543 16.728.762-2.324H9.55l.762 2.324h2.043L9.11 7.691H6.86L3.6 16.728h1.943Zm2.435-7.31 1.189 3.655H6.704L7.892 9.42h.086Zm8.293.192c-1.716 0-2.84 1.153-2.84 3.08v1.046c0 1.926 1.11 3.078 2.819 3.078 1.096 0 1.979-.496 2.214-1.212h.092v1.126H20.4V7.214h-1.88v3.555h-.085c-.292-.715-1.103-1.158-2.164-1.158Zm.627 1.391c.94 0 1.622.662 1.622 1.715v.907c0 1.145-.64 1.807-1.594 1.807-.968 0-1.573-.675-1.573-1.88v-.682c0-1.198.598-1.867 1.545-1.867Z"/><path fill-rule="evenodd" clip-rule="evenodd" d="M22.53 2.53a.75.75 0 0 0-1.06-1.06l-1.973 1.973H2.4a2.4 2.4 0 0 0-2.4 2.4v12.171a2.4 2.4 0 0 0 2.4 2.4h.125L1.47 21.47a.75.75 0 1 0 1.06 1.06l20-20ZM4.025 18.914 17.997 4.943H2.4a.9.9 0 0 0-.9.9v12.171a.9.9 0 0 0 .9.9h1.625Zm3.92 0H21.6a.9.9 0 0 0 .9-.9V5.843a.9.9 0 0 0-.654-.866l1.111-1.114A2.397 2.397 0 0 1 24 5.843v12.171a2.4 2.4 0 0 1-2.4 2.4H6.448l1.497-1.5Z"/></svg>
